!!!voices:
!!!COM: Marenzio, Luca
!!!CDT:
!!!PTL: Il terzo libro de' madrigali a sei voci
!!!PPP: Venice
!!!PPR: Heir of G. Scotto
!!!PDT: 1585
!!!PUB-format:
!!!RISM: M 507
!!!rime: 3
!!!OTL: Su l'ampia fronte il crespo oro lucente
!!!AGN: Madrigal
!!!SCT: Trm0003b
!!!SCA: Trm0003b
!!!original-voices: 6
!!!extant-voices: 6
!!!complete: Y
!!!final: (A)D
**kern	**text	**kern	**text	**kern	**text	**kern	**text	**kern	**text	**kern	**text
*part6	*part6	*part5	*part5	*part4	*part4	*part3	*part3	*part2	*part2	*part1	*part1
*staff6	*staff6	*staff5	*staff5	*staff4	*staff4	*staff3	*staff3	*staff2	*staff2	*staff1	*staff1
*I"Basso	*	*I"Sesto	*	*I"Tenore	*	*I"Alto	*	*I"Quinto	*	*I"Canto	*
*I'B	*	*I'VI	*	*I'T	*	*I'A	*	*I'V	*	*I'C	*
*oclefF3	*	*oclefC3	*	*oclefC3	*	*oclefC2	*	*oclefG2	*	*oclefG2	*
*clefF4	*	*clefGv2	*	*clefGv2	*	*clefG2	*	*clefG2	*	*clefG2	*
*k[]	*	*k[]	*	*k[]	*	*k[]	*	*k[]	*	*k[]	*
*a:	*	*a:	*	*a:	*	*a:	*	*a:	*	*a:	*
*M4/2	*	*M4/2	*	*M4/2	*	*M4/2	*	*M4/2	*	*M4/2	*
*omet(C)	*	*omet(C)	*	*omet(C)	*	*omet(C)	*	*omet(C)	*	*omet(C)	*
=1	=1	=1	=1	=1	=1	=1	=1	=1	=1	=1	=1
!!LO:TX:a:t=Prima parte.
1r	.	1r	.	1A	Su	1r	.	2r	.	0r	.
.	.	.	.	.	.	.	.	1a	Su	.	.
1D	Su	1A	Su	2d	l'am-	1f#X	Su	.	.	.	.
.	.	.	.	2d	-pia	.	.	2dd	l'am-	.	.
=2	=2	=2	=2	=2	=2	=2	=2	=2	=2	=2	=2
2G	l'am-	2B	l'am-	1d	fron-	2g	l'am-	2dd	-pia	1r	.
2G	-pia	2B	-pia	.	.	2g	-pia	1dd	fron-	.	.
1G	fron-	1B	fron-	1d	-te	1g	fron-	.	.	2r	.
.	.	.	.	.	.	.	.	2dd	-te	4r	.
.	.	.	.	.	.	.	.	.	.	4dd	Il
=3	=3	=3	=3	=3	=3	=3	=3	=3	=3	=3	=3
2G	-te,	1B	-te	4r	.	1d	-te	2r	.	4b	cre-
.	.	.	.	4d	il	.	.	.	.	4.dd	-spo o-
2G	Su	.	.	4B	cre-	.	.	4r	.	.	.
.	.	.	.	.	.	.	.	.	.	8cc	-ro
.	.	.	.	4.g	-spo o-	.	.	4gg	il	4b	lu-
2c	l'am-	4r	.	.	.	4r	.	4ee	cre-	2cc	-cen-
.	.	.	.	8f	-ro	.	.	.	.	.	.
.	.	4e	il	4e	lu-	4g	il	4.gg	-spo o-	.	.
2c	-pia	4c	cre-	2g	-cen-	4e	cre-	.	.	4cc	-te,
.	.	.	.	.	.	.	.	8ff	-ro	.	.
.	.	[4e	-spo o-	.	.	[4g	-spo o-	4ee	lu-	4gg	il
=4	=4	=4	=4	=4	=4	=4	=4	=4	=4	=4	=4
1c	fron-	8e]	.	2c	-te,	8g]	.	2gg	-cen-	4ee	cre-
.	.	8d	-ro	.	.	8f	-ro	.	.	.	.
.	.	4c	lu-	.	.	4e	lu-	.	.	4.gg	-spo o-
.	.	2e	-cen-	2r	.	2g	-cen-	2cc	-te,	.	.
.	.	.	.	.	.	.	.	.	.	8ff	-ro
.	.	.	.	.	.	.	.	.	.	4ee	lu-
2c	-te il	2e	-te	4r	.	4c	-te,	4r	.	2gg	-cen-
.	.	.	.	4g	il	4e	il	4ee	il	.	.
4A	cre-	2r	.	4a	cre-	4c	cre-	4ff	cre-	2cc	-te
[4c	-spo o-	.	.	[4g	-spo o-	4e	-spo o-	[4ee	-spo o-	.	.
=5	=5	=5	=5	=5	=5	=5	=5	=5	=5	=5	=5
8c]	.	1r	.	8g]	.	4e	-ro	8ee]	.	8ccL	Spar-
8B	-ro	.	.	8g	-ro	.	.	8dd	-ro	8dd	.
4A	lu-	.	.	4c	lu-	4a	lu-	4cc	lu-	8ee	.
.	.	.	.	.	.	.	.	.	.	8ffJ	.
2G	-cen-	.	.	1g	-cen-	2d	-cen-	2b	-cen-	1gg	.
2C	-te	8cL	Spar-	.	.	4.g	-te	2cc	-te	.	.
.	.	8d	.	.	.	.	.	.	.	.	.
.	.	8e	.	.	.	.	.	.	.	.	.
.	.	8fJ	.	.	.	8a	.	.	.	.	.
2r	.	2g	.	4G	-te	2b	.	8gL	Spar-	4gg	-so on-
.	.	.	.	.	.	.	.	8a	.	.	.
.	.	.	.	8GL	Spar-	.	.	8b	.	4dd	-deg-
.	.	.	.	8AJ	.	.	.	8ccJ	.	.	.
=6	=6	=6	=6	=6	=6	=6	=6	=6	=6	=6	=6
8GL	Spar-	4g	-so,	8BL	.	2r	.	2dd	.	4.gg	-gia-
8A	.	.	.	8cJ	.	.	.	.	.	.	.
8B	.	8dL	Spar-	2d	.	.	.	.	.	.	.
8cJ	.	8eJ	.	.	.	.	.	.	.	16ffL	.
.	.	.	.	.	.	.	.	.	.	16eeJ	.
2d	.	8fL	.	.	.	8dL	Spar-	4dd	-so on-	4.dd	.
.	.	8gJ	.	.	.	8e	.	.	.	.	.
.	.	2a	.	2D	-so on-	8f	.	4a	-deg-	.	.
.	.	.	.	.	.	8gJ	.	.	.	8ee	.
4d	-so on-	.	.	.	.	2a	.	4.dd	-gia-	4.ff	.
4D	-deg-	4f	-so on-	4d	-deg-	.	.	.	.	.	.
.	.	.	.	.	.	.	.	16ccL	.	8ee	.
.	.	.	.	.	.	.	.	16bJ	.	.	.
4.d	-gia-	4a	-deg-	4.f	-gia-	4f	-so on-	4.a	.	8ffL	.
.	.	.	.	.	.	.	.	.	.	8ggJ	.
.	.	[4f	-gia-	.	.	4d	-deg-	.	.	[4aa	.
16cL	.	.	.	16eL	.	.	.	8b	.	.	.
16BJ	.	.	.	16dJ	.	.	.	.	.	.	.
=7	=7	=7	=7	=7	=7	=7	=7	=7	=7	=7	=7
4.A	.	8f]L	.	4.c	.	4.a	-gia-	4.cc	.	8aa]L	.
.	.	16e	.	.	.	.	.	.	.	16gg	.
.	.	16dJ	.	.	.	.	.	.	.	16ffJ	.
.	.	4.c	.	.	.	.	.	.	.	4.ee	.
8B	.	.	.	8d	.	16gL	.	16bL	.	.	.
.	.	.	.	.	.	16fJ	.	16aJ	.	.	.
4.c	.	.	.	4.e	.	4.e	.	4.g	.	.	.
.	.	8d	.	.	.	.	.	.	.	8ff	.
.	.	4.e	.	.	.	.	.	.	.	4.gg	.
16BL	.	.	.	16dL	.	8f#X	.	8a	.	.	.
16AJ	.	.	.	16cJ	.	.	.	.	.	.	.
4.G	.	.	.	4.B	.	4g	.	4.b	.	.	.
.	.	16dL	.	.	.	.	.	.	.	16ffL	.
.	.	16cJ	.	.	.	.	.	.	.	16eeJ	.
.	.	4.B	.	.	.	4g	-va,	.	.	4.dd	.
16FL	.	.	.	8c	.	.	.	16aL	.	.	.
16EJ	.	.	.	.	.	.	.	16gJ	.	.	.
4.D	.	.	.	4.d	.	4r	.	4.f	.	.	.
.	.	8c	.	.	.	.	.	.	.	8ee	.
.	.	[4d	.	.	.	4fnXi	on-	.	.	[4ff	.
8E	.	.	.	16cL	.	.	.	8g	.	.	.
.	.	.	.	16BJ	.	.	.	.	.	.	.
=8	=8	=8	=8	=8	=8	=8	=8	=8	=8	=8	=8
4.F	.	8d]L	.	1A	.	4f	-deg-	1a	.	8ff]L	.
.	.	16c	.	.	.	.	.	.	.	8eeJ	.
.	.	16BJ	.	.	.	.	.	.	.	.	.
.	.	4A	.	.	.	[4a	-gia-	.	.	2dd	.
8G	.	.	.	.	.	.	.	.	.	.	.
2A	.	2e	-va,	.	.	8a]L	.	.	.	.	.
.	.	.	.	.	.	16g	.	.	.	.	.
.	.	.	.	.	.	16fJ	.	.	.	.	.
.	.	.	.	.	.	4e	.	.	.	4cc#X	.
1D	-va,	1r	.	1A	-va,	1f#X	-va,	1a	-va,	[1dd	-va,
=9	=9	=9	=9	=9	=9	=9	=9	=9	=9	=9	=9
4r	.	2d	e	1r	.	4r	.	4r	.	2dd]	.
4G	e	.	.	.	.	4g	e	4b	e	.	.
4G	de'	4B	de'	.	.	4g	de'	4dd	de'	2r	.
4A	be-	4c	be-	.	.	4e	be-	4cc	be-	.	.
1G	-gli oc-	1d	-gli oc-	4r	.	1g	-gli oc-	1b	-gli oc-	1r	.
.	.	.	.	4d	e	.	.	.	.	.	.
.	.	.	.	4B	de'	.	.	.	.	.	.
.	.	.	.	4c	be-	.	.	.	.	.	.
=10	=10	=10	=10	=10	=10	=10	=10	=10	=10	=10	=10
1G	-chi il	1B	-chi il	2d	-gli oc-	1g	-chi il	1b	-chi	4r	.
.	.	.	.	.	.	.	.	.	.	4dd	il
.	.	.	.	2d	-chi il	.	.	.	.	8gL	rag-
.	.	.	.	.	.	.	.	.	.	8a	.
.	.	.	.	.	.	.	.	.	.	8b	.
.	.	.	.	.	.	.	.	.	.	8ccJ	.
1G	rag-	1B	rag-	1d	rag-	1g	rag-	4r	.	4.dd	.
.	.	.	.	.	.	.	.	4dd	il	.	.
.	.	.	.	.	.	.	.	.	.	16eeL	.
.	.	.	.	.	.	.	.	.	.	16ffJ	.
.	.	.	.	.	.	.	.	8gL	rag-	4.gg	.
.	.	.	.	.	.	.	.	8a	.	.	.
.	.	.	.	.	.	.	.	8b	.	.	.
.	.	.	.	.	.	.	.	8ccJ	.	16ffL	.
.	.	.	.	.	.	.	.	.	.	16eeJ	.
=11	=11	=11	=11	=11	=11	=11	=11	=11	=11	=11	=11
0G	-gio	0B	-gio	0d	-gio	0g	-gio	4.dd	.	8ddL	.
.	.	.	.	.	.	.	.	.	.	8cc	.
.	.	.	.	.	.	.	.	.	.	8b	.
.	.	.	.	.	.	.	.	16eeL	.	8aJ	.
.	.	.	.	.	.	.	.	16ffJ	.	.	.
.	.	.	.	.	.	.	.	4.gg	.	4g	.
.	.	.	.	.	.	.	.	.	.	4g	-gio
.	.	.	.	.	.	.	.	16ffL	.	.	.
.	.	.	.	.	.	.	.	16eeJ	.	.	.
.	.	.	.	.	.	.	.	8ddL	.	1r	.
.	.	.	.	.	.	.	.	8cc	.	.	.
.	.	.	.	.	.	.	.	8b	.	.	.
.	.	.	.	.	.	.	.	8aJ	.	.	.
.	.	.	.	.	.	.	.	4g	.	.	.
.	.	.	.	.	.	.	.	4g	-gio	.	.
=12	=12	=12	=12	=12	=12	=12	=12	=12	=12	=12	=12
4r	.	4r	.	4r	.	4r	.	1r	.	4r	.
4.C	Al	4.e	Al	4.c	Al	4.g	Al	.	.	4.ee	Al
8C	ter-	8e	ter-	8c	ter-	8g	ter-	.	.	8ee	ter-
4C	-re-	4e	-re-	4c	-re-	4g	-re-	.	.	4ee	-re-
4F	-no ad-	4c	-no ad-	4A	-no ad-	4a	-no ad-	2r	.	4ff	-no ad-
4D	-du-	4d	-du-	4F	-du-	4b	-du-	.	.	4ff	-du-
2C	-cea	2e	-cea,	4G	-cea,	[2cc	-cea,	4r	.	2ee	-cea,
.	.	.	.	[4g	<Al	.	.	[4ee	Al	.	.
=13	=13	=13	=13	=13	=13	=13	=13	=13	=13	=13	=13
2c	fio-	1r	.	8g]	.	1cc]	.	8ee]	.	1r	.
.	.	.	.	8g	ter-	.	.	8ee	ter-	.	.
.	.	.	.	4g	-re-	.	.	4ee	-re-	.	.
8FL	-ri-	.	.	4a	-no ad-	.	.	4ff	-no ad-	.	.
8G	.	.	.	.	.	.	.	.	.	.	.
8A	.	.	.	4a	-du-	.	.	4ff	-du-	.	.
8BJ	.	.	.	.	.	.	.	.	.	.	.
2c	.	2r	.	2g	-cea,>	4r	.	2ee	-cea,	4r	.
.	.	.	.	.	.	4.g	<Al	.	.	4.ee	<Al
2C	-to	4r	.	4r	.	.	.	2r	.	.	.
.	.	.	.	.	.	8g	ter-	.	.	8ee	ter-
.	.	4c	fio-	4e	fio-	4g	-re-	.	.	4ee	-re-
=14	=14	=14	=14	=14	=14	=14	=14	=14	=14	=14	=14
2F	mag-	8FL	-ri-	8AL	-ri-	4a	-no ad-	4r	.	4ff	-no ad-
.	.	8G	.	8B	.	.	.	.	.	.	.
.	.	8A	.	8c	.	4a	-du-	4cc	fio-	4ff	-du-
.	.	8BJ	.	8dJ	.	.	.	.	.	.	.
2C	-gio	1c	.	1e	.	2g	-cea,>	8ccL	-ri-	2ee	-cea,>
.	.	.	.	.	.	.	.	8dd	.	.	.
.	.	.	.	.	.	.	.	8ee	.	.	.
.	.	.	.	.	.	.	.	8ffJ	.	.	.
1r	.	.	.	.	.	4r	.	4gg	.	4r	.
.	.	.	.	.	.	4g	fio-	4ee	-to	4cc	fio-
.	.	2A	-to	2e	-to	4.cc	-ri-	4.ee	mag-	8ccL	-ri-
.	.	.	.	.	.	.	.	.	.	8dd	.
.	.	.	.	.	.	.	.	.	.	8ee	.
.	.	.	.	.	.	16bL	.	16ddL	.	8ffJ	.
.	.	.	.	.	.	16aJ	.	16ccJ	.	.	.
=15	=15	=15	=15	=15	=15	=15	=15	=15	=15	=15	=15
0r	.	0e	mag-	0r	.	4g	.	4b	.	4gg	.
.	.	.	.	.	.	4c	-to	4g	-gio,	4ee	-to
.	.	.	.	.	.	8cL	mag-	4.gg	mag-	4.ee	mag-
.	.	.	.	.	.	8d	.	.	.	.	.
.	.	.	.	.	.	8e	.	.	.	.	.
.	.	.	.	.	.	8fJ	.	8ff	.	16ddL	.
.	.	.	.	.	.	.	.	.	.	16ccJ	.
.	.	.	.	.	.	4g#i	.	1ee	.	4b	.
.	.	.	.	.	.	2a	.	.	.	4a	.
.	.	.	.	.	.	.	.	.	.	2b	.
.	.	.	.	.	.	4g#X	.	.	.	.	.
=16	=16	=16	=16	=16	=16	=16	=16	=16	=16	=16	=16
0r	.	1A	-gio,	0r	.	1a	-gio,	1ee	-gio,	1cc#X	-gio,
.	.	4d	E	.	.	4a	E	4ff#X	E	4dd	E
.	.	2d	lu-	.	.	2a	lu-	2ff#i	lu-	2dd	lu-
.	.	4G	-glio a i	.	.	4b	-glio a i	4gg	-glio a i	4dd	-glio a i
=17	=17	=17	=17	=17	=17	=17	=17	=17	=17	=17	=17
0r	.	2c	co-	0r	.	1cc	co-	2gg	co-	2ee	co-
.	.	4.c	-ri ol-	.	.	.	.	2gg	-ri	2ee	-ri
.	.	8d	-tre	.	.	.	.	.	.	.	.
.	.	4e	mi-	.	.	4.cc	-ri ol-	4r	.	4r	.
.	.	2f	-su-	.	.	.	.	4.cc	ol-	4.a	ol-
.	.	.	.	.	.	8b	-tre	.	.	.	.
.	.	.	.	.	.	4a	mi-	.	.	.	.
.	.	.	.	.	.	.	.	8dd	-tre	8b	-tre
.	.	4c	-ra ar-	.	.	4g	-su-	4ee	mi-	4cc	mi-
=18	=18	=18	=18	=18	=18	=18	=18	=18	=18	=18	=18
1r	.	1d	-den-	1r	.	4f#X	-ra ar-	4a	-su-	4cc	-su-
.	.	.	.	.	.	2g	-den-	4dd	-ra ar-	4b	-ra ar-
.	.	.	.	.	.	.	.	2dd	-den-	2a	-den-
.	.	.	.	.	.	4f#X	.	.	.	.	.
2r	.	1G	-te:	1d	Nel	1g	-te:	1dd	-te:	1b	-te:
[2G	Nel	.	.	.	.	.	.	.	.	.	.
=19	=19	=19	=19	=19	=19	=19	=19	=19	=19	=19	=19
2G]	.	2d	Nel	1B	bian-	4r	.	4r	.	2b	Nel
.	.	.	.	.	.	4g	Nel	4b	Nel	.	.
1E	bian-	1e	bian-	.	.	1g#X	bian-	1ee	bian-	1b	bian-
.	.	.	.	2B	-co	.	.	.	.	.	.
2E	-co	2B	-co	[2e	se-	2g#i	-co	2ee	-co	2b	-co
=20	=20	=20	=20	=20	=20	=20	=20	=20	=20	=20	=20
1A	se-	2r	.	2e]	.	1a	se-	1ee	se-	1cc#X	se-
.	.	2e	se-	2A	-no	.	.	.	.	.	.
2D	-no	2d	-no	4r	.	2a	-no	2ff#X	-no	2dd	-no
.	.	.	.	4A	A-	.	.	.	.	.	.
4r	.	4r	.	2d	-mor,	4r	.	4r	.	4r	.
4D	A-	4d	A-	.	.	4a	A-	4ff#X	A-	4dd	A-
=21	=21	=21	=21	=21	=21	=21	=21	=21	=21	=21	=21
1G	-mor,	1d	-mor	4r	.	1b	-mor	1gg	-mor	1dd	-mor
.	.	.	.	4G	<A-	.	.	.	.	.	.
.	.	.	.	2d	-mor>	.	.	.	.	.	.
1r	.	4r	.	1r	.	1r	.	1r	.	2g	vez-
.	.	4g	vez-	.	.	.	.	.	.	.	.
.	.	4e	-zo-	.	.	.	.	.	.	4cc	-zo-
.	.	4f#X	-sa-	.	.	.	.	.	.	4a	-sa-
=22	=22	=22	=22	=22	=22	=22	=22	=22	=22	=22	=22
1r	.	4g	-men-	0r	.	4r	.	4r	.	4b	-men-
.	.	4G	-te	.	.	4g	vez-	4gg	vez-	8b	-te
.	.	.	.	.	.	.	.	.	.	8g	Scher-
.	.	2r	.	.	.	4cc	-zo-	4ee	-zo-	2a	-za-
.	.	.	.	.	.	4a	-sa-	4ff#X	-sa-	.	.
2r	.	4r	.	.	.	4b	-men-	4gg	-men-	4g	-va,
.	.	4g	Scher-	.	.	8b	-te,	4dd	-te,	4gg	vez-
.	.	.	.	.	.	8g	vez-	.	.	.	.
4r	.	2a	-za-	.	.	4cc	-zo-	2r	.	4ee	-zo-
4D	A-	.	.	.	.	4a	-sa-	.	.	4ff#X	-sa-
=23	=23	=23	=23	=23	=23	=23	=23	=23	=23	=23	=23
2G	-mor,	2g	-va,	4r	.	4b	-men-	4r	.	4gg	-men-
.	.	.	.	4g	Scher-	4b	-te	4g	vez-	8dd	-te
.	.	.	.	.	.	.	.	.	.	8gg	Scher-
4r	.	2r	.	2a	-za-	2r	.	4cc	-zo-	2ff#X	-za-
4D	<A-	.	.	.	.	.	.	4a	-sa-	.	.
2G	-mor,	1r	.	2g	-va,	4r	.	4b	-men-	4gg	-va,
.	.	.	.	.	.	4g	Scher-	8g	-te	4dd	vez-
.	.	.	.	.	.	.	.	8gg	Scher-	.	.
4r	.	.	.	2r	.	2a	-za-	2ff#X	-za-	4cc	-zo-
4D	A-	.	.	.	.	.	.	.	.	4a	-sa-
=24	=24	=24	=24	=24	=24	=24	=24	=24	=24	=24	=24
2G	-mor>	4r	.	4r	.	2g	-va,	4gg	-va,	4b	-men-
.	.	4G	Scher-	4g	<Scher-	.	.	4dd	Scher-	8g	-te
.	.	.	.	.	.	.	.	.	.	8gg	Scher-
2r	.	2d	-za-	2a	-za-	2r	.	2dd	-za-	2ff#X	-za-
2r	.	2G	-va	1g	-va,>	2r	.	2dd	-va,	2gg	-va,
[2G	e	4r	.	.	.	[2g	e	4r	.	4r	.
.	.	[4d	e	.	.	.	.	[4b	e	[4dd	e
=25	=25	=25	=25	=25	=25	=25	=25	=25	=25	=25	=25
4G]	.	4d]	.	2r	.	4g]	.	4b]	.	4dd]	.
4G	non	4d	non	.	.	4g	non	4b	non	4dd	non
2G	ar-	2B	ar-	2.G	e	2g	ar-	2b	ar-	2dd	ar-
1C	-dia	1e	-dia	.	.	1g	-dia	1cc	-dia	1ee	-dia
.	.	.	.	4G	non	.	.	.	.	.	.
.	.	.	.	2G	ar-	.	.	.	.	.	.
=26	=26	=26	=26	=26	=26	=26	=26	=26	=26	=26	=26
2C	di	2e	di	4c	-dia	2g	di	2cc	di	2ee	di
.	.	.	.	4c	di	.	.	.	.	.	.
1F	far-	2c	far-	1A	far-	1a	far-	1cc	far-	1ff	far-
.	.	2.A	-gli ol-	.	.	.	.	.	.	.	.
2D	-gli ol-	.	.	2d	-gli ol-	2a	-gli ol-	2dd	-gli ol-	2ff	-gli ol-
.	.	4B	.	.	.	.	.	.	.	.	.
=27	=27	=27	=27	=27	=27	=27	=27	=27	=27	=27	=27
1A	-trag-	2c	.	1e	-trag-	1a	-trag-	1cc	-trag-	1ee	-trag-
.	.	2A	-trag-	.	.	.	.	.	.	.	.
1E	-gio;	1B	-gio;	1e	-gio;	1g#X	-gio;	1b	-gio;	1ee	-gio;
=28	=28	=28	=28	=28	=28	=28	=28	=28	=28	=28	=28
4A	E	4c	E	4e	E	4a	E	0r	.	0r	.
2A	l'au-	2c	l'au-	2e	l'au-	2a	l'au-	.	.	.	.
4G	-ra	4d	-ra	4g	-ra	4b	-ra	.	.	.	.
4.c	del	4.e	del	4.g	del	4.cc	del	.	.	.	.
8c	par-	8e	par-	8g	par-	8cc	par-	.	.	.	.
4c	-lar	4e	-lar	4g	-lar	4cc	-lar	.	.	.	.
4d	cor-	4d	cor-	4f	cor-	4a	cor-	.	.	.	.
=29	=29	=29	=29	=29	=29	=29	=29	=29	=29	=29	=29
4B-X	-te-	4d	-te-	4f	-te-	4b-X	-te-	1r	.	1r	.
4F	-se e	4f	-se e	4a	-se e	4cc	-se e	.	.	.	.
2c	sag-	2e	sag-	2g	sag-	2cc	sag-	.	.	.	.
[1F	-gio	[1f	-gio	[1a	-gio	1cc	-gio	2r	.	2r	.
.	.	.	.	.	.	.	.	4f	Fra	4a	Fra
.	.	.	.	.	.	.	.	4g	le	4b	le
=30	=30	=30	=30	=30	=30	=30	=30	=30	=30	=30	=30
1F]	.	1f]	.	1a]	.	1r	.	2a	ro-	2cc	ro-
.	.	.	.	.	.	.	.	4a	-se	4cc	-se
.	.	.	.	.	.	.	.	4b	spi-	4dd	spi-
4c	Fra	4e	Fra	2r	.	2r	.	1cc	-rar,	1ee	-rar,
4B	le	4d	le	.	.	.	.	.	.	.	.
2A	ro-	2c	ro-	4e	Fra	4cc	Fra	.	.	.	.
.	.	.	.	4d	le	4b	le	.	.	.	.
=31	=31	=31	=31	=31	=31	=31	=31	=31	=31	=31	=31
4A	-se	4c	-se	2c	ro-	1a	ro-	2r	.	2r	.
4G	spi-	4B	spi-	.	.	.	.	.	.	.	.
2F	-rar	2A	-rar	4f	-se	.	.	4a	Fra	4cc	<Fra
.	.	.	.	4f	spi-	.	.	4b	le	4dd	le
1C	s'u-	2r	.	1e	-rar	4g	-se	2cc	ro-	2ee	ro-
.	.	.	.	.	.	4f	spi-	.	.	.	.
.	.	2g	s'u-	.	.	2e	-rar	4cc	-se	4ee	-se
.	.	.	.	.	.	.	.	4dd	spi-	4ff	spi-
=32	=32	=32	=32	=32	=32	=32	=32	=32	=32	=32	=32
2C	-dia	2e	-dia	2r	.	4r	.	2ee	-rar	2gg	-rar>
.	.	.	.	.	.	4c	s'u-	.	.	.	.
2BB	so-	2d	so-	4r	.	2.g	-dia	2gg	s'u-	2dd	s'u-
.	.	.	.	4B	s'u-	.	.	.	.	.	.
2.C	-ven-	4.c	-ven-	2.e	-dia	.	.	2gg	-dia	2ee	-dia
.	.	.	.	.	.	4e	so-	.	.	.	.
.	.	8d	.	.	.	.	.	.	.	.	.
.	.	[2e	.	.	.	[2a	-ven-	2ee	so-	2cc	so-
4D	.	.	.	4A	so-	.	.	.	.	.	.
=33	=33	=33	=33	=33	=33	=33	=33	=33	=33	=33	=33
1E	.	4e]	.	1e	-ven-	4a]	.	1ee	-ven-	1b	-ven-
.	.	8dL	.	.	.	8g#XL	.	.	.	.	.
.	.	8cJ	.	.	.	8f#XJ	.	.	.	.	.
.	.	2B	.	.	.	2g#X	.	.	.	.	.
1AAl	-te.	1Al	-te.	1el	-te.	1al	-te.	1eel	-te.	1cc#Xl	-te.
=34||	=34||	=34||	=34||	=34||	=34||	=34||	=34||	=34||	=34||	=34||	=34||
!!LO:TX:a:t=Seconda parte.
1A	Io,	0r	.	0r	.	1a	Io,	1cc#X	Io,	1ee	Io,
2A	che	.	.	.	.	2a	che	2cc#i	che	2ee	che
[2d	for-	.	.	.	.	[2a	for-	[2dd	for-	[2ff#X	for-
=35	=35	=35	=35	=35	=35	=35	=35	=35	=35	=35	=35
4d]	.	0r	.	0r	.	4a]	.	4dd]	.	4ff#]	.
4d	-ma	.	.	.	.	4a	-ma	4dd	-ma	4ff#i	-ma
2B	ce-	.	.	.	.	2d	ce-	2dd	ce-	2gg	ce-
2c	-le-	.	.	.	.	2g	-le-	2cc	-le-	2ee	-le-
4G	-ste in	.	.	.	.	4g	-ste in	4b	-ste in	4dd	-ste in
[4d	ter-	.	.	.	.	[4f	ter-	[4a	ter-	[4ffnXi	ter-
=36	=36	=36	=36	=36	=36	=36	=36	=36	=36	=36	=36
4d]	.	0r	.	0r	.	4f]	.	4a]	.	4ff]	.
4A	-ra	.	.	.	.	4c	-ra	4a	-ra	4ee	-ra
2B-X	scor-	.	.	.	.	2d	scor-	4f	scor-	1dd	scor-
.	.	.	.	.	.	.	.	4g	.	.	.
1A	-si,	.	.	.	.	1e	-si,	1a	-si,	.	.
.	.	.	.	.	.	.	.	.	.	2cc#X	-si,
=37	=37	=37	=37	=37	=37	=37	=37	=37	=37	=37	=37
*col	*	*col	*	*col	*	*col	*	*col	*	*col	*
6D	Rin-	6d	Rin-	6A	Rin-	6f	Rin-	6a	Rin-	6dd	Rin-
6D	-chiu-	6d	-chiu-	6A	-chiu-	6f	-chiu-	6a	-chiu-	6dd	-chiu-
6D	-si i	6f	-si i	6F	-si i	6d	-si i	6a	-si i	6dd	-si i
3C	lu-	3e	lu-	3G	lu-	3g	lu-	3cc	lu-	3ee	lu-
6C	-mi, e	6e	-mi, e	6c	-mi, e	6g	-mi, e	6cc	-mi, e	6ee	-mi, e
*Xcol	*	*Xcol	*	*Xcol	*	*Xcol	*	*Xcol	*	*Xcol	*
1BB-X	dis-	1d	dis-	1F	dis-	1b-X	dis-	1dd	dis-	1ff	dis-
=38	=38	=38	=38	=38	=38	=38	=38	=38	=38	=38	=38
1BB-i	-si:	1d	-si:	1F	-si:	1f	-si:	1dd	-si:	1ff	-si:
1r	.	2r	.	2r	.	1r	.	2r	.	2r	.
.	.	[2a	Ahi,	[2f	Ahi,	.	.	[2ff	Ahi,	[2cc	Ahi,
=39	=39	=39	=39	=39	=39	=39	=39	=39	=39	=39	=39
0r	.	2a]	.	2f]	.	0r	.	2ff]	.	2cc]	.
.	.	4g	co-	4c	co-	.	.	4ee	co-	4cc	co-
.	.	4f	-me è	4d	-me è	.	.	4dd	-me è	4a	-me è
.	.	4e	stol-	4A	stol-	.	.	4cc#X	stol-	4a	stol-
.	.	4g	-to	4G	-to	.	.	4dd	-to	4b	-to
.	.	[2g	Sguar-	[2c	Sguar-	.	.	[2ee	Sguar-	[2cc	Sguar-
=40	=40	=40	=40	=40	=40	=40	=40	=40	=40	=40	=40
0r	.	2g]	.	2c]	.	2r	.	2ee]	.	2cc]	.
.	.	2g	-do	2c	-do	4r	.	2ee	-do	2cc	-do
.	.	.	.	.	.	4g	che'n	.	.	.	.
.	.	1r	.	4A	che'n	2.a	lei	4ee	che'n	4cc#X	che'n
.	.	.	.	2d	lei	.	.	2ff#X	lei	2dd	lei
.	.	.	.	4G	sia	4b	sia	4gg	sia	4dd	sia
=41	=41	=41	=41	=41	=41	=41	=41	=41	=41	=41	=41
0r	.	0r	.	4.c	d'af-	4.cc	d'af-	4.gg	d'af-	4.ee	d'af-
.	.	.	.	8c	-fi-	8cc	-fi-	8gg	-fi-	8ee	-fi-
.	.	.	.	4c	-sar-	4cc	-sar-	4gg	-sar-	4ee	-sar-
.	.	.	.	4d	-si ar-	4a	-si ar-	4ff	-si ar-	2dd	-si ar-
.	.	.	.	1A	-di-	1a	-di-	1ee	-di-	.	.
.	.	.	.	.	.	.	.	.	.	8cc#XL	-di-
.	.	.	.	.	.	.	.	.	.	8bJ	.
.	.	.	.	.	.	.	.	.	.	2cc#X	.
=42	=42	=42	=42	=42	=42	=42	=42	=42	=42	=42	=42
2r	.	4r	.	1d	-to!	1a	-to!	2ff#X	-to!	1dd	-to!
.	.	2a	Ma	.	.	.	.	.	.	.	.
2d	Ma	.	.	.	.	.	.	4r	.	.	.
.	.	4f#X	de	.	.	.	.	4dd	Ma	.	.
4B	de	4.g	l'al-	1r	.	1r	.	4dd	de	1r	.
4.c	l'al-	.	.	.	.	.	.	4.ee	l'al-	.	.
.	.	8g	-tro	.	.	.	.	.	.	.	.
.	.	4e	pe-	.	.	.	.	.	.	.	.
8c	-tro	.	.	.	.	.	.	8ee	-tro	.	.
4B	pe-	[4g	-ri-	.	.	.	.	4dd	pe-	.	.
=43	=43	=43	=43	=43	=43	=43	=43	=43	=43	=43	=43
2A	-ri-	4g]	.	4r	.	0r	.	2cc	-ri-	2r	.
.	.	4f#X	.	4c	non	.	.	.	.	.	.
2G	-glio	2g	-glio	4d	m'ac-	.	.	2b	-glio	4r	.
.	.	.	.	2e	-cor-	.	.	.	.	4gg	Ma
2A	non	2r	.	.	.	.	.	2r	.	4ee	de
.	.	.	.	8dL	.	.	.	.	.	4.ff	l'al-
.	.	.	.	8cJ	.	.	.	.	.	.	.
4B	m'ac-	4r	.	4d	.	.	.	2g	non	.	.
.	.	.	.	.	.	.	.	.	.	8ff	-tro
[4c	-cor-	4e	non	4g	-si,	.	.	.	.	4ee	pe-
=44	=44	=44	=44	=44	=44	=44	=44	=44	=44	=44	=44
4c]	.	4f	m'ac-	1r	.	4r	.	4a	m'ac-	2dd	-ri-
4B	-si,	2g	-cor-	.	.	4d	Ma	2b	-cor-	.	.
2r	.	.	.	.	.	4e	de	.	.	4g	-glio
.	.	4d	-si,	.	.	4.f	l'al-	4a	-si,	4dd	non
1G	Ma	1r	.	1g	Ma	.	.	2r	.	4b	m'ac-
.	.	.	.	.	.	8f	-tro	.	.	.	.
.	.	.	.	.	.	4e	pe-	.	.	2cc	-cor-
.	.	.	.	.	.	2d	-ri-	2dd	Ma	.	.
.	.	.	.	.	.	.	.	.	.	4b	-si,
=45	=45	=45	=45	=45	=45	=45	=45	=45	=45	=45	=45
4E	de	2r	.	4g	de	1c	-glio,	4ee	de	1r	.
4.F	l'al-	.	.	4.a	l'al-	.	.	4.cc	l'al-	.	.
.	.	2A	<non	.	.	.	.	.	.	.	.
8F	-tro	.	.	8a	-tro	.	.	8cc	-tro	.	.
4E	pe-	.	.	4g	pe-	.	.	4cc	pe-	.	.
1D	-ri-	4B	m'ac-	1f	-ri-	1r	.	1dd	-ri-	2r	.
.	.	2c	-cor-	.	.	.	.	.	.	.	.
.	.	.	.	.	.	.	.	.	.	4r	.
.	.	4B	-si,>	.	.	.	.	.	.	4dd	Ma
=46	=46	=46	=46	=46	=46	=46	=46	=46	=46	=46	=46
2E	-glio	1r	.	2e	-glio,	2r	.	4g	-glio	4ee	de
.	.	.	.	.	.	.	.	4cc	non	4.gg	l'al-
2F	non	.	.	2r	.	2d	Ma	4a	m'ac-	.	.
.	.	.	.	.	.	.	.	.	.	8ff	-tro
.	.	.	.	.	.	.	.	2b	-cor-	4ff	pe-
4G	m'ac-	4r	.	2r	.	4g	de	.	.	8eeL	-ri-
.	.	.	.	.	.	.	.	.	.	8dd	.
2A	-cor-	4c	non	.	.	4.a	l'al-	4a	-si,	8cc	.
.	.	.	.	.	.	.	.	.	.	8bJ	.
.	.	4d	m'ac-	4r	.	.	.	4r	.	4a	.
.	.	.	.	.	.	8a	-tro	.	.	.	.
4G	-si,	[4e	-cor-	4g	non	[4g	pe-	4b	non	4ee	-glio
=47	=47	=47	=47	=47	=47	=47	=47	=47	=47	=47	=47
4r	.	4e]	.	4e	m'ac-	4g]	.	4cc	m'ac-	4r	.
4F	non	4d	-si,	2f	-cor-	8fL	-ri-	2dd	-cor-	4a	non
.	.	.	.	.	.	8eJ	.	.	.	.	.
4G	m'ac-	4r	.	.	.	4d	.	.	.	4b	m'ac-
2A	-cor-	4e	<non	4e	-si,	4a	-glio	4cc	-si,	2cc	-cor-
.	.	4f#X	m'ac-	4A	non	2r	.	4r	.	.	.
4G	-si,	2g	-cor-	4B	m'ac-	.	.	4dd	<non	4b	-si,
4r	.	.	.	2c	-cor-	4cc	non	4ee	m'ac-	4r	.
4A	<non	4c	-si:>	.	.	4a	m'ac-	[4ff	-cor-	4cc	<non
=48	=48	=48	=48	=48	=48	=48	=48	=48	=48	=48	=48
4B	m'ac-	1r	.	1G	-si,	2g	-cor-	4ff]	.	4dd	m'ac-
2c	-cor-	.	.	.	.	.	.	4ee	-si:>	2ee	-cor-
.	.	.	.	.	.	2g	-si:	2r	.	.	.
4B	-si:>	.	.	.	.	.	.	.	.	4dd	-si:>
2r	.	2r	.	2r	.	2r	.	1r	.	1r	.
[2A	Ché	[2e	Ché	[2c	Ché	[2a	Ché	.	.	.	.
=49	=49	=49	=49	=49	=49	=49	=49	=49	=49	=49	=49
2A]	.	2e]	.	2c]	.	2a]	.	1r	.	1r	.
2G	mi	2g	mi	2d	mi	2b	mi	.	.	.	.
4F	fu	1a	fu,	4f	fu	1cc	fu,	2r	.	2r	.
8c	per	.	.	8e	per	.	.	.	.	.	.
8B	l'o-	.	.	8d	l'o-	.	.	.	.	.	.
4A	-rec-	.	.	4c	-rec-	.	.	[2a	Ché	[2cc	Ché
4G	-chie il	.	.	4B	-chie il	.	.	.	.	.	.
=50	=50	=50	=50	=50	=50	=50	=50	=50	=50	=50	=50
4F	cor	1r	.	4A	cor	1r	.	2a]	.	2cc]	.
4E	fe-	.	.	4G	fe-	.	.	.	.	.	.
2D	-ri-	.	.	2F	-ri-	.	.	2b	mi	2dd	mi
1C	-to	2r	.	1G	-to	2r	.	4cc	fu	4ee	fu
.	.	.	.	.	.	.	.	8ee	per	8gg	per
.	.	.	.	.	.	.	.	8dd	l'o-	8ff	l'o-
.	.	[2c	Ché	.	.	[2e	Ché	4cc	-rec-	4ee	-rec-
.	.	.	.	.	.	.	.	4b	-chie il	4dd	-chie il
=51	=51	=51	=51	=51	=51	=51	=51	=51	=51	=51	=51
0r	.	2c]	.	0r	.	2e]	.	4a	cor	4cc	cor
.	.	.	.	.	.	.	.	4g	fe-	4b	fe-
.	.	2d	mi	.	.	2f	mi	2f	-ri-	2a	-ri-
.	.	4e	fu	.	.	4g	fu	2e	-to,	1g	-to,
.	.	8g	per	.	.	8b	per	.	.	.	.
.	.	8f	l'o-	.	.	8a	l'o-	.	.	.	.
.	.	4e	-rec-	.	.	4g	-rec-	[2ee	Ché	.	.
.	.	4d	-chie il	.	.	4f	-chie il	.	.	.	.
=52	=52	=52	=52	=52	=52	=52	=52	=52	=52	=52	=52
0r	.	4c	cor	0r	.	4e	cor	2ee]	.	2g	Ché
.	.	4B	fe-	.	.	4d	fe-	.	.	.	.
.	.	2A	-ri-	.	.	2c	-ri-	2ff#X	mi	2a	mi
.	.	2G	-to,	.	.	4d	-to,	4gg	fu	4b	fu
.	.	.	.	.	.	4g	il	8ee	per	8gg	per
.	.	.	.	.	.	.	.	8dd	l'o-	8ff	l'o-
.	.	4r	.	.	.	4a	cor	4cc	-rec-	4ee	-rec-
.	.	4G	il	.	.	4b	fe-	4b	-chie il	4dd	-chie il
=53	=53	=53	=53	=53	=53	=53	=53	=53	=53	=53	=53
1r	.	4A	cor	1r	.	4cc	-ri-	4a	cor	4cc	cor
.	.	4B	fe-	.	.	4dd	-to	2g	fe-	4b	fe-
.	.	4c	-ri-	.	.	2r	.	.	.	2a	-ri-
.	.	4d	.	.	.	.	.	4f#X	-ri-	.	.
4r	.	2G	-to	4r	.	1r	.	2g	-to,	2b	-to
4G	E i	.	.	4g	E i	.	.	.	.	.	.
4A	det-	2r	.	4c	det-	.	.	2r	.	2r	.
4B	-ti an-	.	.	4d	-ti an-	.	.	.	.	.	.
=54	=54	=54	=54	=54	=54	=54	=54	=54	=54	=54	=54
2c	-da-	1r	.	2e	-da-	4r	.	4r	.	1r	.
.	.	.	.	.	.	4g	E i	4gg	E i	.	.
2c	-ro	.	.	2e	-ro	4a	det-	4cc	det-	.	.
.	.	.	.	.	.	4b	-ti an-	4dd	-ti an-	.	.
4r	.	4r	.	4r	.	2cc	-da-	2ee	-da-	4r	.
2c	o-	2g	o-	2e	o-	.	.	.	.	2gg	o-
.	.	.	.	.	.	2cc	-ro	2ee	-ro	.	.
4c	-ve	4g	-ve	4e	-ve	.	.	.	.	4gg	-ve
=55	=55	=55	=55	=55	=55	=55	=55	=55	=55	=55	=55
1c	non	2g	non	1e	non	4r	.	4r	.	1ee	non
.	.	.	.	.	.	2g	o-	2cc	o-	.	.
.	.	1c	giun-	.	.	.	.	.	.	.	.
.	.	.	.	.	.	4g	-ve	4cc	-ve	.	.
[1F	giun-	.	.	2A	giun-	1a	non	1cc	non	1ff	giun-
.	.	2A	-se in	[2f	-se in	.	.	.	.	.	.
=56	=56	=56	=56	=56	=56	=56	=56	=56	=56	=56	=56
2F]	.	0A	vol-	2f]	.	2a	giun-	2ff	giun-	2cc	-se in
2D	-se in	.	.	2.a	vol-	2f	-se in	2ff	-se in	1dd	vol-
1A	vol-	.	.	.	.	1a	vol-	1ee	vol-	.	.
.	.	.	.	8gL	.	.	.	.	.	.	.
.	.	.	.	8fJ	.	.	.	.	.	.	.
.	.	.	.	2e	.	.	.	.	.	2cc#X	-to,
=57	=57	=57	=57	=57	=57	=57	=57	=57	=57	=57	=57
2D	-to,	2A	-to,	2d	-to,	4a	-to,	2ff#X	-to,	4r	.
.	.	.	.	.	.	4d	E i	.	.	4dd	E i
2r	.	2r	.	2r	.	4e	det-	2r	.	4g	det-
.	.	.	.	.	.	4f#X	-ti an-	.	.	4a	-ti an-
4r	.	1r	.	4r	.	4g	-da-	1r	.	4b	-da-
4G	E i	.	.	4g	E i	4d	-ro,	.	.	4b	-ro
4A	det-	.	.	4c	det-	2r	.	.	.	2r	.
4B	-ti an-	.	.	4d	-ti an-	.	.	.	.	.	.
=58	=58	=58	=58	=58	=58	=58	=58	=58	=58	=58	=58
2c	-da-	1r	.	2e	-da-	4r	.	4r	.	1r	.
.	.	.	.	.	.	4g	e i	4gg	E i	.	.
2c	-ro	.	.	2e	-ro	4a	det-	4cc	det-	.	.
.	.	.	.	.	.	4b	-ti an-	4dd	-ti an-	.	.
4r	.	4r	.	4r	.	2cc	-da-	2ee	-da-	4r	.
2c	o-	2g	o-	2e	o-	.	.	.	.	2gg	o-
.	.	.	.	.	.	2cc	-ro	2ee	-ro	.	.
4c	-ve	4g	-ve	4e	-ve	.	.	.	.	4gg	-ve
=59	=59	=59	=59	=59	=59	=59	=59	=59	=59	=59	=59
1c	non	2g	non	1e	non	4r	.	4r	.	1ee	non
.	.	.	.	.	.	2g	o-	2cc	o-	.	.
.	.	1c	giun-	.	.	.	.	.	.	.	.
.	.	.	.	.	.	4g	-ve	4cc	-ve	.	.
[1F	giun-	.	.	2A	giun-	1a	non	1cc	non	1ff	giun-
.	.	2A	-se in	[2f	-se in	.	.	.	.	.	.
=60	=60	=60	=60	=60	=60	=60	=60	=60	=60	=60	=60
2F]	.	0A	vol-	2f]	.	2a	giun-	2ff	giun-	2cc	-se in
2D	-se in	.	.	2.a	vol-	2f	-se in	2ff	-se in	2.dd	vol-
1A	vol-	.	.	.	.	1a	vol-	1ee	vol-	.	.
.	.	.	.	8gL	.	.	.	.	.	8cc#XL	.
.	.	.	.	8fJ	.	.	.	.	.	8bJ	.
.	.	.	.	2e	.	.	.	.	.	2cc#X	.
=61	=61	=61	=61	=61	=61	=61	=61	=61	=61	=61	=61
0Dl	-to.	0Al	-to.	0dl	-to.	0al	-to.	0ff#Xl	-to.	0ddl	-to.
==	==	==	==	==	==	==	==	==	==	==	==
*-	*-	*-	*-	*-	*-	*-	*-	*-	*-	*-	*-
!!!system-decoration: [*]
!!!RDF**kern: i = editorial accidental
!!!RDF**kern: l = terminal long
!!!ENC: Emiliano Ricciardi
!!!END: 2019
!!!EED: Coluzzi, Seth
!!!EEV: 2019/04/21
!!!YEC: Copyright 2018 Emiliano Ricciardi, All Rights Reserved
!!!ONB: Translated from MusicXML on 2020/08/08
!!@@BEGIN:	VERSEDATA
!!@SOLERTI:	3
!!@CATALOGNUM:	Trm0003
!!@LAST_MODIFIED: 2020/07/12
!!@TITLE:		Su l'ampia fronte il crespo oro lucente
!!@GENRE:		sonetto
!!@MANUSRC:	Amz, Ber, Brn, C, Mi, Ts<sub>1</sub>, V<sub>8</sub>, V<sub>13/TS1</sub>
!!@PRINTSRC:	3, 4, 8, 9, 11, 12, 13, 15, 20, 24, 29, 33, 67, 85, 87, 141, 166, 169
!!@@BEGIN:	VERSES
!!@ABOUTIT:	Segue la medesima descrizione. (i.e., "Descrive la bellezza de la sua donna e il principio del suo amore, il quale fu ne la sua prima giovinezza." <i>Rime</i> 2)
!!@ABOUTEN:	It follows the same description. (i.e., "He describes the beauty of his lady and the beginning of his love, which took place in his early youth." <i>Rime</u> 2)
!!@EDITOR:	Solerti, Angelo
!!@EDITION_TITLE: Le Rime di Torquato Tasso
!!@EDITION_LOC:	Bologna
!!@EDITION_PUB:	Romagnoli-Dall’Acqua
!!@EDITION_DATE:  1898-1902
!!@EDITION_VOL:	2
!!@EDITION_PAGE:  8-9
!!@TRANSLATOR:	Emiliano Ricciardi and Amyrose McCue Gill
!!@VERSE:
!!	Su l'ampia fronte il crespo oro lucente
!!	Sparso ondeggiava, e de' begli occhi il raggio
!!	Al terreno adducea fiorito maggio,
!!	E luglio a i cori oltre misura ardente:
!!@VERSE:
!!	Nel bianco seno Amor vezzosamente
!!	Scherzava, e non osò di fargli oltraggio;
!!	E l'aura del parlar cortese e saggio
!!	Fra le rose spirar s'udia sovente.
!!@VERSE:
!!	Io, che forma celeste in terra scòrsi,
!!	Rinchiusi i lumi, e dissi: Ahi, come è stolto
!!	Sguardo che 'n lei sia d'affisarsi ardito!
!!@VERSE:
!!	Ma de l'altro periglio non m'accòrsi:
!!	Ché mi fu per l'orecchie il cor ferito
!!	E i detti andaro ove non giunse in volto.
!!@TVERSE:
!!	Upon her high brow, curly shining gold
!!	Spilled in waves, and the gaze of her beautiful eyes
!!	Brought May’s flowering upon the earth
!!	And burning July to hearts beyond measure:
!!@TVERSE:
!!	In her white breast Love, charmingly,
!!	Was playing and dared not offend it;
!!	And a breeze carrying courteous, wise speech
!!	Among the roses one could often hear.
!!@TVERSE:
!!	I, who caught sight of this heavenly form on earth,
!!	Shut my eyes and said: “Alas! How foolish is
!!	The glance that dares to fix upon her!”
!!@TVERSE:
!!	But of the other danger I was not aware:
!!	Because it was through my ears [that] my heart [was] wounded
!!	And the words went where her face did not reach.
!!@@END:		VERSES
!!
!!@OTHER_CRIT_ED: Torquato Tasso, <i>Rime d’amore (secondo il codice
!!		Chigiano L VIII 302)</i>, eds. Franco Gavazzeni and
!!		Vercingetorige Martignone, vol. 4 of <i>Edizione
!!		Nazionale delle opere di Torquato Tasso</i>
!!		(Alessandria: Edizioni Dell’Orso, 2004), 5.
!!@ATTRIBUTION_ABOUT:	Secure
!!		<br>
!!		Among other authoritative sources (see Literary
!!		Sources), this poem appears in the autograph Chigiano
!!		L.VIII.302 (Biblioteca Vaticana, Rome), compiled
!!		around 1584&ndash;85.
!!@DATING:
!!@DEDICATEE:	Bendidio, Lucrezia
!!@COMMENTARY:
!!@@END:		VERSEDATA
!!@@BEGIN:	SETTING
!!@CATALOGNUM:	Trm0003b
!!@RIMETITLE:	Su l'ampia fronte il crespo oro lucente
!!@SOLERTI:	3
!!@COMPOSER:	Marenzio, Luca
!!@PRINCEPSTITLE:	Il terzo libro de' madrigali a sei voci
!!@PRINCEPSLOC:	Vinegia
!!@NORMLOC:	Venice
!!@NORMPUB:	Heir of G. Scotto
!!@NORMPUBSHORT:	Scotto
!!@PRINCEPSPUB:	Herede di Scotto
!!@PRINCEPSYEAR:	1585
!!@PRINCEPSRISM:	M 507
!!@REPRINTS:	M0508, M0509, M0523, M0524
!!@OVOICES:	6
!!@EXTANTVOICES:	6
!!@PARTBOOKS:	
!!@EXTPARTBOOKS:	
!!@OCLEFS:	G2,G2,C2,C3,C3,F3
!!@OMENSURATION:	C
!!@OKEYSIG:	-
!!@FINAL:	(A)D
!!@TIMPEDITOR:	Coluzzi, Seth
!!@NOTE:		
!!@@END:		SETTING
